X:2735
T:a Jigg
A:North-West
M:C|
N:P21 3/3
O:England
%%TUNEURL: http://www.leeds.ac.uk/music/Info/RRTuneBk/gettune/0000058c.html
%%ID:0000058c
K:F
fcAc FcEc|Dc d/2c/2B/2A/2 BGG2|\
fcAc BdcA|BGcA F/2F/2F F2:|
|:cfaf gcac|gcac gcbc|\
cfaf gcgb|afge f/2f/2f f2:|
